X:1
T:Title
%%score ( 1 2 ) { 3 | 4 }
L:1/8
Q:1/4=95
M:2/4
K:F
V:1 treble nm="Grand Piano, Soprano"
V:2 treble 
V:3 bass nm="Choir Pad, Dies Irae (Montreal), 888"
V:4 bass 
V:1
 [DF]3 [DF] | [DF]3 [DF] | [EG]3 [FA] | [FB]4 | [FA]2 z2 | [FA]3 [FA] | [FA]3 [FA] | [FA]3 [FB] | %8
w: By~Anonymous,~1877 *||||||||
 c4 | [Ec]2 z2 | [FA]3 [CG] | [FB]3 [FA] | [DG]3 F | [FA]4 | [EG]4 | F4- | F4 |] %17
w: |||||||||
V:2
 x4 | x4 | x4 | x4 | x4 | x4 | x4 | x4 | F2 ED | x4 | x4 | x4 | x4 | x4 | x4 | x4 | x4 |] %17
V:3
 A,3 A, | A,3 A, | C3[K:treble] C | D4 | C2 z2 | C3 C | C3 C | C3[K:bass] F, | G,4 | C2 z2 | C3 C | %11
 B,3 C | D3[K:bass] A, | C4 | C2 B,2 | A,4- | A,4 |] %17
V:4
 D,3 D, | D,3 D, | C,3 F, | B,,4 | F,2 z2 | F,3 F, | F,3 F, | F,3 D, | C,4 | C,2 z2 | F,3 E, | %11
 D,3 C, | B,,3 D, | C,4 | C,4 | F,,4- | F,,4 |] %17

